assets/linuxfoundation/original.svg

<svg viewBox="0 0 24 24" xmlns="http://www.w3.org/2000/svg" fill="#003778"><path d="m4.8 19.2h9.6v4.8h-14.4v-14.4h4.8zm-4.8-19.2v7.2h4.8v-2.378h14.4v14.378h-2.4v4.8h7.2v-24z"/></svg>

<svg xmlns="http://www.w3.org/2000/svg" fill="#003778" viewBox="0 0 24 24"><path d="M4.8 19.2h9.6V24H0V9.6h4.8zM0 0v7.2h4.8V4.822h14.4V19.2h-2.4V24H24V0z"/></svg>
